assets/marketplace/remittance.svg

<svg fill="none" height="20" viewBox="0 0 23 20" width="23" xmlns="http://www.w3.org/2000/svg"><path d="m11.5577.850113v-.0001l-2.0115 2.319307-.10804.10405c0 .00001.00001.00001.00001.00001.0958.09947.22895.13274.34391.12896.11331-.00373.23602-.04405.32192-.12757l.9864-.91637v5.29674c0 .25449.2086.45716.4615.45716s.4616-.20268.4616-.45716v-5.29674l.9846.91481c.0901.09243.2143.13483.331.136.1184.00119.2462-.03994.3377-.13698.096-.10188.1205-.23363.1089-.34707-.0115-.11237-.0595-.22401-.1332-.30483l.0004-.00035-.0092-.00856-1.7655-1.638188-.0001-.000033c-.0852-.07899-.2074-.119112-.3104-.123086zm-1.74613 5.255577v-.15h-.15-5.03407c-2.07966 0-3.7775 1.67085-3.7775 3.72634v5.74167c0 2.0554 1.69784 3.7263 3.7775 3.7263h13.745c2.0797 0 3.7775-1.6709 3.7775-3.7263v-5.74167c0-2.05549-1.6978-3.72634-3.7775-3.72634h-5.0341-.15v.15 3.03561h-3.37683zm-5.18407 12.23341h-.00211c-1.64374.0231-2.98185-1.2961-2.98185-2.9398v-5.74161c0-1.61816 1.33741-2.93975 2.98396-2.93975h4.39053v2.79232c0 .10772.03714.20885.11256.28321.07523.07417.17674.11009.28422.11009h4.17039c.1075 0 .209-.03592.2842-.11009.0754-.07436.1126-.17549.1126-.28321v-2.79232h4.3905c1.6466 0 2.984 1.32159 2.984 2.93975v5.74161c0 1.6182-1.3374 2.9398-2.984 2.9398zm9.3278-3.7373h4.4418c.1075 0 .209-.0359.2842-.11.0754-.0744.1126-.1755.1126-.2833 0-.1077-.0372-.2088-.1126-.2832-.0752-.0741-.1767-.11-.2842-.11h-4.4418c-.1075 0-.209.0359-.2843.11-.0754.0744-.1125.1755-.1125.2832 0 .1104.0544.2077.1218.2741.0675.0666.1652.1192.275.1192zm0 1.8978h4.4418c.1075 0 .209-.0359.2842-.11.0754-.0744.1126-.1755.1126-.2832 0-.1078-.0372-.2089-.1126-.2833-.0752-.0741-.1767-.11-.2842-.11h-4.4418c-.1075 0-.209.0359-.2843.11-.0754.0744-.1125.1755-.1125.2833 0 .1103.0544.2076.1218.274.0675.0666.1652.1192.275.1192z" fill="#fff" stroke="#fff" stroke-width=".3"/></svg>

<svg width="23" height="20" viewBox="0 0 23 20" fill="none" xmlns="http://www.w3.org/2000/svg">
<path d="M11.5577 0.850113L11.5577 0.850013L9.5462 3.16932L9.43816 3.27337C9.43816 3.27338 9.43817 3.27338 9.43817 3.27338C9.53397 3.37285 9.66712 3.40612 9.78208 3.40234C9.89539 3.39861 10.0181 3.35829 10.104 3.27477L11.0904 2.3584V7.65514C11.0904 7.90963 11.299 8.1123 11.5519 8.1123C11.8048 8.1123 12.0135 7.90962 12.0135 7.65514V2.3584L12.9981 3.27321C13.0882 3.36564 13.2124 3.40804 13.3291 3.40921C13.4475 3.4104 13.5753 3.36927 13.6668 3.27223C13.7628 3.17035 13.7873 3.0386 13.7757 2.92516C13.7642 2.81279 13.7162 2.70115 13.6425 2.62033L13.6429 2.61998L13.6337 2.61142L11.8682 0.973232L11.8681 0.973199C11.7829 0.894209 11.6607 0.854087 11.5577 0.850113ZM9.81157 6.10569V5.95569H9.66157H4.6275C2.54784 5.95569 0.85 7.62654 0.85 9.68203V15.4237C0.85 17.4791 2.54784 19.15 4.6275 19.15H18.3725C20.4522 19.15 22.15 17.4791 22.15 15.4237V9.68203C22.15 7.62654 20.4522 5.95569 18.3725 5.95569H13.3384H13.1884V6.10569V9.1413H9.81157V6.10569ZM4.6275 18.3391L4.62539 18.3391C2.98165 18.3622 1.64354 17.043 1.64354 15.3993V9.65769C1.64354 8.03953 2.98095 6.71794 4.6275 6.71794H9.01803V9.51026C9.01803 9.61798 9.05517 9.71911 9.13059 9.79347C9.20582 9.86764 9.30733 9.90356 9.41481 9.90356H13.5852C13.6927 9.90356 13.7942 9.86764 13.8694 9.79347C13.9448 9.71911 13.982 9.61798 13.982 9.51026V6.71794H18.3725C20.0191 6.71794 21.3565 8.03953 21.3565 9.65769V15.3993C21.3565 17.0175 20.0191 18.3391 18.3725 18.3391L4.6275 18.3391ZM13.9553 14.6018H18.3971C18.5046 14.6018 18.6061 14.5659 18.6813 14.4918C18.7567 14.4174 18.7939 14.3163 18.7939 14.2085C18.7939 14.1008 18.7567 13.9997 18.6813 13.9253C18.6061 13.8512 18.5046 13.8153 18.3971 13.8153H13.9553C13.8478 13.8153 13.7463 13.8512 13.671 13.9253C13.5956 13.9997 13.5585 14.1008 13.5585 14.2085C13.5585 14.3189 13.6129 14.4162 13.6803 14.4826C13.7478 14.5492 13.8455 14.6018 13.9553 14.6018ZM13.9553 16.4996H18.3971C18.5046 16.4996 18.6061 16.4637 18.6813 16.3896C18.7567 16.3152 18.7939 16.2141 18.7939 16.1064C18.7939 15.9986 18.7567 15.8975 18.6813 15.8231C18.6061 15.749 18.5046 15.7131 18.3971 15.7131H13.9553C13.8478 15.7131 13.7463 15.749 13.671 15.8231C13.5956 15.8975 13.5585 15.9986 13.5585 16.1064C13.5585 16.2167 13.6129 16.314 13.6803 16.3804C13.7478 16.447 13.8455 16.4996 13.9553 16.4996Z" fill="white" stroke="white" stroke-width="0.3"/>
</svg>
